X: 53
T:Humours of old Knockaney (The)
M:4/4
L:1/8
R:Reel
Z:Andrew Pickering
K:A dor
c2 ef g2 ed|c2 ec dBGB|c2 ef g2 ec|dBGB BA A2|
c2 ef g2 ed|c2 ec dBGB|c2 ef geaf|gedB BA A2||
A>B (3cBA EA (3cBA|G>AGB dBGB|A>B (3cBA EA (3cBA|
dBGB BA A2|A>B (3cBA EA (3cBA|G>AGB dBGB|
c>c cA B>B BA|GEDB, A,A,z
